assets/aqua_logo_white.svg

<svg fill="none" height="28" viewBox="0 0 103 28" width="103" xmlns="http://www.w3.org/2000/svg" xmlns:xlink="http://www.w3.org/1999/xlink"><filter id="a" color-interpolation-filters="sRGB" filterUnits="userSpaceOnUse" height="27.4814" width="29.5637" x="27.7104" y=".032227"><feFlood flood-opacity="0" result="BackgroundImageFix"/><feColorMatrix in="SourceAlpha" result="hardAlpha" type="matrix" values="0 0 0 0 0 0 0 0 0 0 0 0 0 0 0 0 0 0 127 0"/><feOffset dy="2"/><feGaussianBlur stdDeviation="2"/><feColorMatrix type="matrix" values="0 0 0 0 0.0509804 0 0 0 0 0.0745098 0 0 0 0 0.137255 0 0 0 0.153054 0"/><feBlend in2="BackgroundImageFix" mode="normal" result="effect1_dropShadow_3813_4847"/><feBlend in="SourceGraphic" in2="effect1_dropShadow_3813_4847" mode="normal" result="shape"/></filter><filter id="b" color-interpolation-filters="sRGB" filterUnits="userSpaceOnUse" height="27.4863" width="23.991" x="54.9724" y=".513672"><feFlood flood-opacity="0" result="BackgroundImageFix"/><feColorMatrix in="SourceAlpha" result="hardAlpha" type="matrix" values="0 0 0 0 0 0 0 0 0 0 0 0 0 0 0 0 0 0 127 0"/><feOffset dy="2"/><feGaussianBlur stdDeviation="2"/><feColorMatrix type="matrix" values="0 0 0 0 0.0509804 0 0 0 0 0.0745098 0 0 0 0 0.137255 0 0 0 0.153054 0"/><feBlend in2="BackgroundImageFix" mode="normal" result="effect1_dropShadow_3813_4847"/><feBlend in="SourceGraphic" in2="effect1_dropShadow_3813_4847" mode="normal" result="shape"/></filter><filter id="c" color-interpolation-filters="sRGB" filterUnits="userSpaceOnUse" height="27.4404" width="27.8318" x="74.7825" y="0"><feFlood flood-opacity="0" result="BackgroundImageFix"/><feColorMatrix in="SourceAlpha" result="hardAlpha" type="matrix" values="0 0 0 0 0 0 0 0 0 0 0 0 0 0 0 0 0 0 127 0"/><feOffset dy="2"/><feGaussianBlur stdDeviation="2"/><feColorMatrix type="matrix" values="0 0 0 0 0.0509804 0 0 0 0 0.0745098 0 0 0 0 0.137255 0 0 0 0.153054 0"/><feBlend in2="BackgroundImageFix" mode="normal" result="effect1_dropShadow_3813_4847"/><feBlend in="SourceGraphic" in2="effect1_dropShadow_3813_4847" mode="normal" result="shape"/></filter><filter id="d" color-interpolation-filters="sRGB" filterUnits="userSpaceOnUse" height="27.5225" width="31.9727" x="0" y="0"><feFlood flood-opacity="0" result="BackgroundImageFix"/><feColorMatrix in="SourceAlpha" result="hardAlpha" type="matrix" values="0 0 0 0 0 0 0 0 0 0 0 0 0 0 0 0 0 0 127 0"/><feOffset dy="2"/><feGaussianBlur stdDeviation="2"/><feColorMatrix type="matrix" values="0 0 0 0 0.0509804 0 0 0 0 0.0745098 0 0 0 0 0.137255 0 0 0 0.153054 0"/><feBlend in2="BackgroundImageFix" mode="normal" result="effect1_dropShadow_3813_4847"/><feBlend in="SourceGraphic" in2="effect1_dropShadow_3813_4847" mode="normal" result="shape"/></filter><g filter="url(#a)"><path clip-rule="evenodd" d="m41.8286 21.514h11.4455v-2.7363h-4.6955v-.0546c.4318-.3045.8455-.6772 1.25-1.1136.4-.4364.7591-.9455 1.0728-1.5273.3136-.5818.5681-1.2318.7636-1.9454.1954-.7182.2954-1.5046.2954-2.3637 0-1.45-.25-2.76815-.75-3.95906-.5-1.1909-1.2-2.21363-2.1045-3.07272-.9-.85909-1.9682-1.52728-3.2045-2-1.2364-.47273-2.5773-.70909-4.0273-.70909-1.4455 0-2.7909.23636-4.0364.70909-1.2409.47727-2.3182 1.14091-3.2318 2-.9091.85909-1.6227 1.88182-2.1318 3.07272-.5091 1.19091-.7637 2.50906-.7637 3.95906 0 1.5364.241 2.9091.7228 4.1182.4863 1.2091 1.1682 2.2273 2.0545 3.0591.8864.8318 1.95 1.4682 3.1955 1.9046 1.2409.4409 2.6227.659 4.1454.659zm-2.5091-15.94086c.7955-.34091 1.65-.5091 2.5637-.5091.9682 0 1.8454.17273 2.6318.5091.7864.3409 1.4636.80454 2.0273 1.39545.5636.58636.9954 1.29545 1.3 2.11818.3045.82273.4545 1.71363.4545 2.68183 0 1.0182-.1591 1.9454-.4818 2.7773-.3227.8318-.7682 1.5409-1.3409 2.1318s-1.2591 1.05-2.0546 1.3818c-.7954.3318-1.6591.4955-2.5909.4955-.95 0-1.8182-.1637-2.6045-.4955-.7909-.3318-1.4637-.7909-2.0273-1.3818s-1-1.3-1.3136-2.1318c-.3137-.8319-.4682-1.7591-.4682-2.7773 0-.9636.1636-1.8591.4954-2.68183.3319-.82273.7819-1.52727 1.3546-2.11818s1.2591-1.05455 2.0545-1.39545z" fill="#fff" fill-rule="evenodd"/></g><path d="m48.5922 18.7774v-.0545c.4272-.3046.8454-.6773 1.25-1.1136.4045-.4364.7591-.95 1.0727-1.5273.1091-.2046.2136-.4227.3136-.6455h-3.8272c-.2591.4637-.5682.8818-.9273 1.25-.5727.5909-1.2591 1.05-2.0546 1.3818-.7954.3319-1.6591.4955-2.5909.4955-.95 0-1.8136-.1636-2.6045-.4955-.7864-.3318-1.4637-.7909-2.0273-1.3818-.3545-.3682-.6545-.7863-.9091-1.25h-4.0227c.0545.1546.1091.3091.1682.4591.4818 1.2091 1.1682 2.2273 2.0545 3.0591.8864.8318 1.95 1.4682 3.1955 1.9046 1.2454.4363 2.6272.659 4.1454.659h11.4591v-2.7363h-4.6954z" fill="#fff"/><g filter="url(#b)"><path d="m74.9633 14.5364c0 1.1455-.1954 2.1773-.5909 3.1-.3954.9227-.9318 1.7045-1.6091 2.35-.6818.6455-1.4863 1.1409-2.4136 1.4909-.9318.35-2.2909.5227-3.3818.5227s-2.4546-.1727-3.3819-.5227c-.9318-.35-1.7409-.8454-2.4272-1.4909-.6909-.6455-1.2273-1.4273-1.6091-2.35-.3864-.9227-.5773-1.9545-.5773-3.1v-12.02273h3.3818v11.88633c0 .5546.0728 1.1046.2137 1.65.1409.5455.3818 1.0319.7091 1.4637.3318.4272.7681.7772 1.3136 1.0454.5454.2682 1.5727.4046 2.3773.4046.8045 0 1.8318-.1364 2.3772-.4046.5455-.2682.9819-.6182 1.3137-1.0454.3318-.4273.5682-.9182.7091-1.4637.1409-.5454.2136-1.0954.2136-1.65v-11.88633h3.3818z" fill="#fff"/></g><path d="m71.4995 15.4365c-.0318.2046-.0772.4137-.1318.6182-.1454.5455-.3818 1.0318-.7091 1.4636-.3318.4273-.7682.7773-1.3136 1.0455-.5455.2682-1.5727.4045-2.3773.4045-.8045 0-1.8318-.1363-2.3772-.4045-.5455-.2682-.9819-.6182-1.3137-1.0455-.3318-.4272-.5682-.9181-.7091-1.4636-.0545-.2045-.1-.4136-.1318-.6182h-3.4227c.0773.7955.2545 1.5273.5363 2.2.3864.9228.9228 1.7046 1.6091 2.35.6864.6455 1.5 1.1409 2.4273 1.4909.9318.35 2.2909.5228 3.3818.5228s2.4546-.1728 3.3818-.5228c.9319-.35 1.7364-.8454 2.4137-1.4909.6818-.6454 1.2182-1.4272 1.6091-2.35.2863-.6727.4681-1.4091.5454-2.2z" fill="#fff"/><g filter="url(#c)"><path d="m98.6143 21.4409h-3.8864l-1.7773-3.4682-4.25-8.33179-4.2499 8.33179-1.7773 3.4682h-3.8909l1.7772-3.4682 8.1409-15.9727 8.1364 15.9727z" fill="#fff"/></g><path d="m81.8552 15.4365-1.2955 2.5364-1.7772 3.4682h3.8909l1.7773-3.4682 1.2909-2.5364z" fill="#fff"/><path d="m95.5462 15.4365h-3.8909l1.2954 2.5364 1.7773 3.4682h3.8864l-1.7773-3.4682z" fill="#fff"/><g filter="url(#d)"><path clip-rule="evenodd" d="m4 15.4364 11.9864-13.4364 11.9863 13.4364-7.9727 6.0863h-8.0364zm11.9864 3.6091h.1363c2.5273-.0728 4.7137-2.0637 4.7091-4.6091 0-.85-.3909-2.0319-.7864-2.7182-.4131-.8116-.9917-1.73413-1.5809-2.67352-.8561-1.36515-1.7345-2.76581-2.16-3.91286v-.00455c-.0022-.00454-.0034-.00909-.0045-.01363-.0011-.00455-.0023-.00909-.0045-.01364l-.2-.55909c-.0364-.10455-.1864-.10455-.2228 0l-.2045.57273c-.4222 1.14831-1.3011 2.5512-2.1584 3.91967-.5917.94454-1.1731 1.87269-1.5871 2.68939-.3954.6864-.7863 1.8682-.7863 2.7182 0 2.5409 2.1863 4.5318 4.7181 4.6046z" fill="#fff" fill-rule="evenodd"/></g><path d="m16.1227 19.0456c-.0454 0-.0909 0-.1363 0-.0455 0-.0909 0-.1319 0-2.1863-.0636-4.1181-1.5591-4.6-3.6091h-7.2545l7.9636 6.0864h8.0364l7.9727-6.0864h-7.25c-.4818 2.05-2.4136 3.5455-4.6 3.6091z" fill="#fff"/></svg>

<svg width="103" height="28" viewBox="0 0 103 28" fill="none" xmlns="http://www.w3.org/2000/svg">
<g filter="url(#filter0_d_3813_4847)">
<path fill-rule="evenodd" clip-rule="evenodd" d="M41.8286 21.514H53.2741V18.7777H48.5786V18.7231C49.0104 18.4186 49.4241 18.0459 49.8286 17.6095C50.2286 17.1731 50.5877 16.664 50.9014 16.0822C51.215 15.5004 51.4695 14.8504 51.665 14.1368C51.8604 13.4186 51.9604 12.6322 51.9604 11.7731C51.9604 10.3231 51.7104 9.00495 51.2104 7.81404C50.7104 6.62314 50.0104 5.60041 49.1059 4.74132C48.2059 3.88223 47.1377 3.21404 45.9014 2.74132C44.665 2.26859 43.3241 2.03223 41.8741 2.03223C40.4286 2.03223 39.0832 2.26859 37.8377 2.74132C36.5968 3.21859 35.5195 3.88223 34.6059 4.74132C33.6968 5.60041 32.9832 6.62314 32.4741 7.81404C31.965 9.00495 31.7104 10.3231 31.7104 11.7731C31.7104 13.3095 31.9514 14.6822 32.4332 15.8913C32.9195 17.1004 33.6014 18.1186 34.4877 18.9504C35.3741 19.7822 36.4377 20.4186 37.6832 20.855C38.9241 21.2959 40.3059 21.514 41.8286 21.514ZM39.3195 5.57314C40.115 5.23223 40.9695 5.06404 41.8832 5.06404C42.8514 5.06404 43.7286 5.23677 44.515 5.57314C45.3014 5.91404 45.9786 6.37768 46.5423 6.96859C47.1059 7.55495 47.5377 8.26404 47.8423 9.08677C48.1468 9.9095 48.2968 10.8004 48.2968 11.7686C48.2968 12.7868 48.1377 13.714 47.815 14.5459C47.4923 15.3777 47.0468 16.0868 46.4741 16.6777C45.9014 17.2686 45.215 17.7277 44.4195 18.0595C43.6241 18.3913 42.7604 18.555 41.8286 18.555C40.8786 18.555 40.0104 18.3913 39.2241 18.0595C38.4332 17.7277 37.7604 17.2686 37.1968 16.6777C36.6332 16.0868 36.1968 15.3777 35.8832 14.5459C35.5695 13.714 35.415 12.7868 35.415 11.7686C35.415 10.805 35.5786 9.9095 35.9104 9.08677C36.2423 8.26404 36.6923 7.5595 37.265 6.96859C37.8377 6.37768 38.5241 5.91404 39.3195 5.57314Z" fill="white"/>
</g>
<path d="M48.5922 18.7774V18.7229C49.0194 18.4183 49.4376 18.0456 49.8422 17.6093C50.2467 17.1729 50.6013 16.6593 50.9149 16.082C51.024 15.8774 51.1285 15.6593 51.2285 15.4365H47.4013C47.1422 15.9002 46.8331 16.3183 46.474 16.6865C45.9013 17.2774 45.2149 17.7365 44.4194 18.0683C43.624 18.4002 42.7603 18.5638 41.8285 18.5638C40.8785 18.5638 40.0149 18.4002 39.224 18.0683C38.4376 17.7365 37.7603 17.2774 37.1967 16.6865C36.8422 16.3183 36.5422 15.9002 36.2876 15.4365H32.2649C32.3194 15.5911 32.374 15.7456 32.4331 15.8956C32.9149 17.1047 33.6013 18.1229 34.4876 18.9547C35.374 19.7865 36.4376 20.4229 37.6831 20.8593C38.9285 21.2956 40.3103 21.5183 41.8285 21.5183H53.2876V18.782H48.5922V18.7774Z" fill="white"/>
<g filter="url(#filter1_d_3813_4847)">
<path d="M74.9633 14.5364C74.9633 15.6819 74.7679 16.7137 74.3724 17.6364C73.977 18.5591 73.4406 19.3409 72.7633 19.9864C72.0815 20.6319 71.277 21.1273 70.3497 21.4773C69.4179 21.8273 68.0588 22 66.9679 22C65.877 22 64.5133 21.8273 63.586 21.4773C62.6542 21.1273 61.8451 20.6319 61.1588 19.9864C60.4679 19.3409 59.9315 18.5591 59.5497 17.6364C59.1633 16.7137 58.9724 15.6819 58.9724 14.5364V2.51367H62.3542V14.4C62.3542 14.9546 62.427 15.5046 62.5679 16.05C62.7088 16.5955 62.9497 17.0819 63.277 17.5137C63.6088 17.9409 64.0451 18.2909 64.5906 18.5591C65.136 18.8273 66.1633 18.9637 66.9679 18.9637C67.7724 18.9637 68.7997 18.8273 69.3451 18.5591C69.8906 18.2909 70.327 17.9409 70.6588 17.5137C70.9906 17.0864 71.227 16.5955 71.3679 16.05C71.5088 15.5046 71.5815 14.9546 71.5815 14.4V2.51367H74.9633V14.5364V14.5364Z" fill="white"/>
</g>
<path d="M71.4995 15.4365C71.4677 15.6411 71.4223 15.8502 71.3677 16.0547C71.2223 16.6002 70.9859 17.0865 70.6586 17.5183C70.3268 17.9456 69.8904 18.2956 69.345 18.5638C68.7995 18.832 67.7723 18.9683 66.9677 18.9683C66.1632 18.9683 65.1359 18.832 64.5905 18.5638C64.045 18.2956 63.6086 17.9456 63.2768 17.5183C62.945 17.0911 62.7086 16.6002 62.5677 16.0547C62.5132 15.8502 62.4677 15.6411 62.4359 15.4365H59.0132C59.0905 16.232 59.2677 16.9638 59.5495 17.6365C59.9359 18.5593 60.4723 19.3411 61.1586 19.9865C61.845 20.632 62.6586 21.1274 63.5859 21.4774C64.5177 21.8274 65.8768 22.0002 66.9677 22.0002C68.0586 22.0002 69.4223 21.8274 70.3495 21.4774C71.2814 21.1274 72.0859 20.632 72.7632 19.9865C73.445 19.3411 73.9814 18.5593 74.3723 17.6365C74.6586 16.9638 74.8404 16.2274 74.9177 15.4365H71.4995Z" fill="white"/>
<g filter="url(#filter2_d_3813_4847)">
<path d="M98.6143 21.4409H94.7279L92.9506 17.9727L88.7006 9.64091L84.4507 17.9727L82.6734 21.4409H78.7825L80.5597 17.9727L88.7006 2L96.837 17.9727L98.6143 21.4409Z" fill="white"/>
</g>
<path d="M81.8552 15.4365L80.5597 17.9729L78.7825 21.4411H82.6734L84.4507 17.9729L85.7416 15.4365H81.8552Z" fill="white"/>
<path d="M95.5462 15.4365H91.6553L92.9507 17.9729L94.728 21.4411H98.6144L96.8371 17.9729L95.5462 15.4365Z" fill="white"/>
<g filter="url(#filter3_d_3813_4847)">
<path fill-rule="evenodd" clip-rule="evenodd" d="M4 15.4364L15.9864 2L27.9727 15.4364L20 21.5227H11.9636L4 15.4364ZM15.9864 19.0455H16.1227C18.65 18.9727 20.8364 16.9818 20.8318 14.4364C20.8318 13.5864 20.4409 12.4045 20.0454 11.7182C19.6323 10.9066 19.0537 9.98407 18.4645 9.04468C17.6084 7.67953 16.73 6.27887 16.3045 5.13182V5.12727C16.3023 5.12273 16.3011 5.11818 16.3 5.11364C16.2989 5.10909 16.2977 5.10455 16.2955 5.1L16.0955 4.54091C16.0591 4.43636 15.9091 4.43636 15.8727 4.54091L15.6682 5.11364C15.246 6.26195 14.3671 7.66484 13.5098 9.03331C12.9181 9.97785 12.3367 10.906 11.9227 11.7227C11.5273 12.4091 11.1364 13.5909 11.1364 14.4409C11.1364 16.9818 13.3227 18.9727 15.8545 19.0455H15.9864Z" fill="white"/>
</g>
<path d="M16.1227 19.0456V19.0456C16.0773 19.0456 16.0318 19.0456 15.9864 19.0456V19.0456C15.9409 19.0456 15.8955 19.0456 15.8545 19.0456V19.0456C13.6682 18.982 11.7364 17.4865 11.2545 15.4365H4V15.4365L11.9636 21.5229H20L27.9727 15.4365V15.4365H20.7227C20.2409 17.4865 18.3091 18.982 16.1227 19.0456Z" fill="white"/>
<defs>
<filter id="filter0_d_3813_4847" x="27.7104" y="0.0322266" width="29.5637" height="27.4814" filterUnits="userSpaceOnUse" color-interpolation-filters="sRGB">
<feFlood flood-opacity="0" result="BackgroundImageFix"/>
<feColorMatrix in="SourceAlpha" type="matrix" values="0 0 0 0 0 0 0 0 0 0 0 0 0 0 0 0 0 0 127 0" result="hardAlpha"/>
<feOffset dy="2"/>
<feGaussianBlur stdDeviation="2"/>
<feColorMatrix type="matrix" values="0 0 0 0 0.0509804 0 0 0 0 0.0745098 0 0 0 0 0.137255 0 0 0 0.153054 0"/>
<feBlend mode="normal" in2="BackgroundImageFix" result="effect1_dropShadow_3813_4847"/>
<feBlend mode="normal" in="SourceGraphic" in2="effect1_dropShadow_3813_4847" result="shape"/>
</filter>
<filter id="filter1_d_3813_4847" x="54.9724" y="0.513672" width="23.991" height="27.4863" filterUnits="userSpaceOnUse" color-interpolation-filters="sRGB">
<feFlood flood-opacity="0" result="BackgroundImageFix"/>
<feColorMatrix in="SourceAlpha" type="matrix" values="0 0 0 0 0 0 0 0 0 0 0 0 0 0 0 0 0 0 127 0" result="hardAlpha"/>
<feOffset dy="2"/>
<feGaussianBlur stdDeviation="2"/>
<feColorMatrix type="matrix" values="0 0 0 0 0.0509804 0 0 0 0 0.0745098 0 0 0 0 0.137255 0 0 0 0.153054 0"/>
<feBlend mode="normal" in2="BackgroundImageFix" result="effect1_dropShadow_3813_4847"/>
<feBlend mode="normal" in="SourceGraphic" in2="effect1_dropShadow_3813_4847" result="shape"/>
</filter>
<filter id="filter2_d_3813_4847" x="74.7825" y="0" width="27.8318" height="27.4404" filterUnits="userSpaceOnUse" color-interpolation-filters="sRGB">
<feFlood flood-opacity="0" result="BackgroundImageFix"/>
<feColorMatrix in="SourceAlpha" type="matrix" values="0 0 0 0 0 0 0 0 0 0 0 0 0 0 0 0 0 0 127 0" result="hardAlpha"/>
<feOffset dy="2"/>
<feGaussianBlur stdDeviation="2"/>
<feColorMatrix type="matrix" values="0 0 0 0 0.0509804 0 0 0 0 0.0745098 0 0 0 0 0.137255 0 0 0 0.153054 0"/>
<feBlend mode="normal" in2="BackgroundImageFix" result="effect1_dropShadow_3813_4847"/>
<feBlend mode="normal" in="SourceGraphic" in2="effect1_dropShadow_3813_4847" result="shape"/>
</filter>
<filter id="filter3_d_3813_4847" x="0" y="0" width="31.9727" height="27.5225" filterUnits="userSpaceOnUse" color-interpolation-filters="sRGB">
<feFlood flood-opacity="0" result="BackgroundImageFix"/>
<feColorMatrix in="SourceAlpha" type="matrix" values="0 0 0 0 0 0 0 0 0 0 0 0 0 0 0 0 0 0 127 0" result="hardAlpha"/>
<feOffset dy="2"/>
<feGaussianBlur stdDeviation="2"/>
<feColorMatrix type="matrix" values="0 0 0 0 0.0509804 0 0 0 0 0.0745098 0 0 0 0 0.137255 0 0 0 0.153054 0"/>
<feBlend mode="normal" in2="BackgroundImageFix" result="effect1_dropShadow_3813_4847"/>
<feBlend mode="normal" in="SourceGraphic" in2="effect1_dropShadow_3813_4847" result="shape"/>
</filter>
</defs>
</svg>
